img/icons-payable-taxes/11.svg

<svg width="50" height="48" viewBox="0 0 50 48" fill="none" xmlns="http://www.w3.org/2000/svg">
<path d="M49.4857 27.4721C48.6905 27.224 28.5988 20.9532 28.3236 20.8672V15.3061L28.7753 15.556C29.984 16.2247 31.5076 15.7868 32.1766 14.5774C32.8443 13.3701 32.4054 11.8443 31.198 11.1764L12.3998 0.778264C11.4721 0.265083 10.3166 0.393696 9.525 1.09858L6.0257 4.21233C5.72346 4.48118 5.6965 4.94417 5.96545 5.24631C6.23429 5.54866 6.69728 5.57571 6.99943 5.30657L10.4988 2.19281C10.8272 1.90062 11.3063 1.84721 11.6908 2.06L30.4889 12.4582C30.9896 12.7352 31.1716 13.3679 30.8947 13.8685C30.6208 14.3637 29.9921 14.5551 29.4844 14.2743L11.7831 4.48284C11.5109 4.33216 11.1738 4.37005 10.9418 4.57649L3.19241 11.472C2.76565 11.8521 2.1098 11.8162 1.72757 11.3865C1.5433 11.1795 1.45072 10.9131 1.46683 10.6363C1.48295 10.3597 1.60589 10.1058 1.81292 9.92159L4.87307 7.19855C5.17531 6.9297 5.20227 6.46672 4.93332 6.16457C4.66448 5.86223 4.20149 5.83547 3.89934 6.10432L0.8391 8.82735C0.339688 9.27179 0.0433026 9.88389 0.00433794 10.5513C-0.0345291 11.2186 0.18881 11.861 0.633046 12.3603C1.55228 13.3934 3.13265 13.486 4.16604 12.5662L4.30911 12.439V24.3228L3.66135 24.1968C3.2636 24.1199 2.87981 24.379 2.80247 24.7759C2.72523 25.173 2.9845 25.5576 3.38157 25.6348L4.30911 25.8153V36.4414C4.30911 36.846 4.63694 37.1738 5.04152 37.1738C5.44611 37.1738 5.77394 36.846 5.77394 36.4414V26.1002L26.8586 30.202V45.8088H16.3303V39.6686C16.3303 38.9529 15.7481 38.3707 15.0325 38.3707H10.5511C9.83545 38.3707 9.25323 38.9529 9.25323 39.6686V45.8088H5.77404V39.2601C5.77404 38.8556 5.44621 38.5277 5.04162 38.5277C4.63703 38.5277 4.3092 38.8556 4.3092 39.2601V46.5413C4.3092 46.9459 4.63703 47.2737 5.04162 47.2737H32.7331C32.9127 47.2737 33.0859 47.2077 33.22 47.0884C34.7204 45.7529 35.9044 43.892 36.7392 41.5572C39.039 35.1248 41.9511 35.227 45.3238 35.3456C45.8304 35.3634 46.3553 35.3816 46.8748 35.3762C47.2761 35.3718 47.5993 35.0451 47.5993 34.6438V28.4179L49.0494 28.8704C49.4363 28.9912 49.8464 28.7747 49.9667 28.3895C50.0872 28.0034 49.8718 27.5926 49.4857 27.4721ZM5.77404 24.6079V11.1355L11.528 6.01565L26.8587 14.4958V28.7095L5.77404 24.6079ZM10.7182 45.8088V39.8354H14.8656V45.8088H10.7182ZM46.1344 33.9052C45.8802 33.8991 45.6256 33.8903 45.3753 33.8815C41.9279 33.7607 38.0203 33.623 35.3598 41.0639C34.6475 43.0562 33.6685 44.651 32.4479 45.8088H28.3237V30.4868L28.9713 30.6128C29.3694 30.6899 29.753 30.4301 29.8302 30.0337C29.9074 29.6366 29.6482 29.2521 29.2511 29.1748L28.3237 28.9944V22.4016L46.1345 27.9605V33.9052H46.1344Z" fill="#007A65"/>
</svg>

<svg width="50" height="48" fill="none" xmlns="http://www.w3.org/2000/svg"><path d="M49.486 27.472l-21.162-6.605v-5.56l.451.249a2.503 2.503 0 002.423-4.38L12.4.778a2.505 2.505 0 00-2.875.32l-3.5 3.114A.732.732 0 107 5.307l3.5-3.114a1.039 1.039 0 011.192-.133L30.49 12.458a1.038 1.038 0 01-1.005 1.816l-17.7-9.791a.732.732 0 00-.842.093l-7.75 6.896a1.037 1.037 0 11-1.38-1.55l3.061-2.723A.732.732 0 103.9 6.104L.84 8.827a2.486 2.486 0 00-.835 1.724 2.5 2.5 0 004.162 2.015l.143-.127v11.884l-.648-.126a.733.733 0 00-.28 1.438l.928.18v10.626a.732.732 0 101.465 0v-10.34l21.085 4.101v15.607H16.33v-6.14a1.3 1.3 0 00-1.297-1.298H10.55a1.3 1.3 0 00-1.298 1.298v6.14H5.774V39.26a.732.732 0 10-1.465 0v7.281c0 .405.328.733.733.733h27.691c.18 0 .353-.066.487-.186 1.5-1.335 2.684-3.196 3.52-5.53 2.299-6.433 5.211-6.331 8.584-6.212.506.017 1.031.036 1.55.03a.733.733 0 00.725-.732v-6.226l1.45.452a.732.732 0 00.437-1.398zM5.774 24.608V11.135l5.754-5.12 15.33 8.48V28.71L5.775 24.608zm4.944 21.2v-5.973h4.148v5.974h-4.148zm35.416-11.903a68.17 68.17 0 01-.759-.023c-3.447-.121-7.355-.259-10.015 7.182-.712 1.992-1.691 3.587-2.912 4.745h-4.124V30.487l.647.126a.733.733 0 00.28-1.438l-.927-.18v-6.593l17.81 5.558v5.945z" fill="#007A65"/></svg>
